X:658
T: ICH LIEBE DICH SO LANG ICH LEBEN WERDE
N: E0608
O: Europa, Mitteleuropa, Deutschland, Ober - Hessen; Nassau
R: Liebes - Lied
M: 4/4
L: 1/16
K: A
E2F2G2 | A6A2c2c2B2A2 | B2E2E4z2
E2F2G2 | A6A2c2c2B2A2 | B8z2
B2B3c | d6c2B2d2f2e2 | e2c2c4z2
A2f2e2 | e3dd2E2c4B4 | A8z2

